resources/images/bulb.svg

<svg xmlns="http://www.w3.org/2000/svg" xmlns:xlink="http://www.w3.org/1999/xlink" preserveAspectRatio="none" width="285" height="427" viewBox="0 0 285 427"><defs><g id="a"><path fill="#333" d="M126.6 373.55q12.35 3.45 28.9 0l11.25-11.2-49.05.75q1.7 5.25 8.9 10.45z"/><path fill="#828282" d="M106.5 350.15l11.2 12.95 49.05-.75 13.2-15.35v-1.65l-73.45 4.8m-.6-29.75v8l74.05-4.9q.05-4.05.25-7.9l-74.3 4.8m-.1 15.25l-.2 7.4 74.25-4.8q-.1-3.8 0-7.45l-74.05 4.85m0-28.8q0 3.2.1 6.35l74.65-4.8q.05-2.65.25-5.4l-75 3.85z"/><path fill="#999" d="M102.1 335.95l3.7-.3 74.05-4.85 3.15-.25q2.5-3.6 0-7.3l-3.05.25-74.05 4.9-3.8.25q-2.8 4.6 0 7.3m3.5 7.1l-3.65.25q-2.75 4.55 0 7.1l4.55-.25 73.45-4.8 3-.25q2.4-3.5 0-7.1l-3.1.25-74.25 4.8m-3-22.45l3.3-.2 74.3-4.8 3.25-.25q2.4-3.4 0-7.1l-2.9.15-74.65 4.8-3.3.2q-2.1 5.05 0 7.2m-.6-15.25l3.8 1.5 75-3.85 1.55-.05q1.25-3.6 1-7.55H101.1q-.45 5.75.9 9.95m0-16.5q-.65 3.3-.9 6.55h82.25q-.15-3-1-6.25l-31.9-.1-20.05-.1-28.4-.1z"/><path fill="#FFFFEC" d="M155.4 240.7H126l4.4 48.25 20.05.1 4.95-48.35m5.85-97.1q0-3.95-2.05-6.85-.6.3-1.1.75-3.95 3.1-3.95 7.9 0 2.15.6 3.95 1.1 2.65 2.9 2.65 1.9 0 2.85-3.35.75-2.3.75-5.05M123 145.65q0-2.4-1.35-4.8-1.9-3-4.8-3h-.1q-4 3.35-4 6.85 0 3.85.65 5.05.9 1.45 3.9 1.45 2.8 0 4.35-1.45 1.35-1.55 1.35-4.1m17.95-8.85q-.7-1-1.3-1.6-.1 0-.15.05-3.95 3.95-3.95 9.1 0 3.2.65 4.3.95 1.55 3.8 1.55 1 0 2.65-1.55 1.8-1.55 1.8-2.6 0-4.5-3.5-9.25m38.9 9q.15.35.35.95l-24.8 93.95-4.95 48.35 31.9.1.75-.45q10.9-5.9 15-34.2 4.2-28.65 21.6-48.6 17.5-20.15 17.5-59.25 0-39.05-27.6-66.65-26.85-26.85-64.45-27.7h-1.2l-4.05.1q-37.6.75-64.45 27.6-27.6 27.6-27.6 66.65 0 39.1 17.5 59.25 17.4 19.95 21.6 48.6 4.1 28.3 15.05 34.35l28.4.1-4.4-48.25-25.45-91.65L126 240.7h29.4l24.8-93.95q-.2-.6-.35-.95-3.85-7.95-3.95-8.05-2.4-3.25-7.9-3.25-5.2 0-8.8 2.25 2.05 2.9 2.05 6.85 0 2.75-.75 5.05-.95 3.35-2.85 3.35-1.8 0-2.9-2.65-.6-1.8-.6-3.95 0-4.8 3.95-7.9.5-.45 1.1-.75-.85-1.15-1.9-2.25-3.6-3.35-7.9-3.35-5.7 0-9.75 4.05.6.6 1.3 1.6 3.5 4.75 3.5 9.25 0 1.05-1.8 2.6-1.65 1.55-2.65 1.55-2.85 0-3.8-1.55-.65-1.1-.65-4.3 0-5.15 3.95-9.1.05-.05.15-.05-3.45-3.6-7.3-3.6-5.9 0-12.5 4.1-1.8 1.1-3.1 2.15h.1q2.9 0 4.8 3 1.35 2.4 1.35 4.8 0 2.55-1.35 4.1-1.55 1.45-4.35 1.45-3 0-3.9-1.45-.65-1.2-.65-5.05 0-3.5 4-6.85-1.35.1-4.8 1.2-2.75.85-4.95 1.8-2.3.85-4.2 3.75-2.05 3.35-2.9 4.45.85-1.1 2.9-4.45 1.9-2.9 4.2-3.75 2.2-.95 4.95-1.8 3.45-1.1 4.8-1.2 1.3-1.05 3.1-2.15 6.6-4.1 12.5-4.1 3.85 0 7.3 3.6 4.05-4.05 9.75-4.05 4.3 0 7.9 3.35 1.05 1.1 1.9 2.25 3.6-2.25 8.8-2.25 5.5 0 7.9 3.25.1.1 3.95 8.05z"/></g><path id="b" stroke="#414141" stroke-width="2" stroke-linejoin="round" stroke-linecap="round" fill="none" d="M182.35 289.15l-31.9-.1m32.65-.35q10.9-5.9 15-34.2 4.2-28.65 21.6-48.6 17.5-20.15 17.5-59.25 0-39.05-27.6-66.65-26.85-26.85-64.45-27.7h-1.2m-4.05.1q-37.6.75-64.45 27.6-27.6 27.6-27.6 66.65 0 39.1 17.5 59.25 17.4 19.95 21.6 48.6 4.1 28.3 15.05 34.35l28.4.1M143.95 52.3h-2.35q-.85 0-1.7.1M102 288.85q-.65 3.3-.9 6.55h82.25q-.15-3-1-6.25m-31.9-.1l-20.05-.1m-29.3 6.45q-.45 5.75.9 9.95l3.8 1.5 75-3.85 1.55-.05q1.25-3.6 1-7.55m-77.55 11.45q0 3.2.1 6.35m74.65-4.8q.05-2.65.25-5.4m-75 32.65l-.2 7.4m.3-22.65v8m.6 21.75l11.2 12.95 49.05-.75 13.2-15.35v-1.65M117.7 363.1q1.7 5.25 8.9 10.45 12.35 3.45 28.9 0l11.25-11.2m13.1-24.1q-.1-3.8 0-7.45m.1-7.3q.05-4.05.25-7.9"/><path id="c" stroke="#333" stroke-width="2" stroke-linejoin="round" stroke-linecap="round" fill="none" d="M180.2 146.75l-24.8 93.95-4.95 48.35m-20.05-.1L126 240.7l-25.45-91.65m54.85 91.65H126"/><path id="d" stroke="#414141" stroke-width="1" stroke-linejoin="round" stroke-linecap="round" fill="none" d="M105.9 313.2l74.65-4.8m-74.65 12l-3.3.2q-2.1-2.15 0-7.2l3.3-.2m.6 36.95l-4.55.25q-2.75-2.55 0-7.1l3.65-.25m.2-7.4l-3.7.3q-2.8-2.7 0-7.3l3.8-.25m0-8l74.3-4.8 3.25-.25q2.4-3.4 0-7.1l-2.9.15m-.6 36.95l-73.45 4.8m73.35-19.35l-74.05 4.85m74.05 2.6l3.1-.25q2.4 3.6 0 7.1l-3 .25m0-21.85l3.05-.25q2.5 3.7 0 7.3l-3.15.25m-73.95-2.4l74.05-4.9m-74.35 19.55l74.25-4.8"/><path id="e" stroke="#000" stroke-width="1" stroke-linejoin="round" stroke-linecap="round" fill="none" d="M99.9 149.05q.85-1.1 2.9-4.45 1.9-2.9 4.2-3.75 2.2-.95 4.95-1.8 3.45-1.1 4.8-1.2 1.3-1.05 3.1-2.15 6.6-4.1 12.5-4.1 3.85 0 7.3 3.6 4.05-4.05 9.75-4.05 4.3 0 7.9 3.35 1.05 1.1 1.9 2.25 3.6-2.25 8.8-2.25 5.5 0 7.9 3.25.1.1 3.95 8.05.15.35.35.95m-40.55-11.55q-.1 0-.15.05-3.95 3.95-3.95 9.1 0 3.2.65 4.3.95 1.55 3.8 1.55 1 0 2.65-1.55 1.8-1.55 1.8-2.6 0-4.5-3.5-9.25-.7-1-1.3-1.6zm-22.9 2.65q-4 3.35-4 6.85 0 3.85.65 5.05.9 1.45 3.9 1.45 2.8 0 4.35-1.45 1.35-1.55 1.35-4.1 0-2.4-1.35-4.8-1.9-3-4.8-3h-.1zm42.45-1.1q-.6.3-1.1.75-3.95 3.1-3.95 7.9 0 2.15.6 3.95 1.1 2.65 2.9 2.65 1.9 0 2.85-3.35.75-2.3.75-5.05 0-3.95-2.05-6.85z"/></defs><g><use xlink:href="#a"/><use xlink:href="#b"/><use xlink:href="#c"/><use xlink:href="#d"/><use xlink:href="#e"/></g></svg>

<svg xmlns="http://www.w3.org/2000/svg" version="1.1" xmlns:xlink="http://www.w3.org/1999/xlink" preserveAspectRatio="none" x="0px" y="0px" width="285px" height="427px" viewBox="0 0 285 427">
<defs>
<g id="Layer0_0_FILL">
<path fill="#333333" stroke="none" d="
M 126.6 373.55
Q 138.95 377 155.5 373.55
L 166.75 362.35 117.7 363.1
Q 119.4 368.35 126.6 373.55 Z"/>

<path fill="#828282" stroke="none" d="
M 106.5 350.15
L 117.7 363.1 166.75 362.35 179.95 347
Q 179.95 346.15 179.95 345.35
L 106.5 350.15
M 105.9 320.4
Q 105.9 324.35 105.9 328.4
L 179.95 323.5
Q 180 319.45 180.2 315.6
L 105.9 320.4
M 105.8 335.65
Q 105.7 339.35 105.6 343.05
L 179.85 338.25
Q 179.75 334.45 179.85 330.8
L 105.8 335.65
M 105.8 306.85
Q 105.8 310.05 105.9 313.2
L 180.55 308.4
Q 180.6 305.75 180.8 303
L 105.8 306.85 Z"/>

<path fill="#999999" stroke="none" d="
M 102.1 335.95
L 105.8 335.65 179.85 330.8 183 330.55
Q 185.5 326.95 183 323.25
L 179.95 323.5 105.9 328.4 102.1 328.65
Q 99.3 333.25 102.1 335.95
M 105.6 343.05
L 101.95 343.3
Q 99.2 347.85 101.95 350.4
L 106.5 350.15 179.95 345.35 182.95 345.1
Q 185.35 341.6 182.95 338
L 179.85 338.25 105.6 343.05
M 102.6 320.6
L 105.9 320.4 180.2 315.6 183.45 315.35
Q 185.85 311.95 183.45 308.25
L 180.55 308.4 105.9 313.2 102.6 313.4
Q 100.5 318.45 102.6 320.6
M 102 305.35
L 105.8 306.85 180.8 303 182.35 302.95
Q 183.6 299.35 183.35 295.4
L 101.1 295.4
Q 100.65 301.15 102 305.35
M 102 288.85
Q 101.35 292.15 101.1 295.4
L 183.35 295.4
Q 183.2 292.4 182.35 289.15
L 150.45 289.05 130.4 288.95 102 288.85 Z"/>

<path fill="#FFFFEC" stroke="none" d="
M 155.4 240.7
L 126 240.7 130.4 288.95 150.45 289.05 155.4 240.7
M 161.25 143.6
Q 161.25 139.65 159.2 136.75 158.6 137.05 158.1 137.5 154.15 140.6 154.15 145.4 154.15 147.55 154.75 149.35 155.85 152 157.65 152 159.55 152 160.5 148.65 161.25 146.35 161.25 143.6
M 123 145.65
Q 123 143.25 121.65 140.85 119.75 137.85 116.85 137.85
L 116.75 137.85
Q 112.75 141.2 112.75 144.7 112.75 148.55 113.4 149.75 114.3 151.2 117.3 151.2 120.1 151.2 121.65 149.75 123 148.2 123 145.65
M 140.95 136.8
Q 140.25 135.8 139.65 135.2 139.55 135.2 139.5 135.25 135.55 139.2 135.55 144.35 135.55 147.55 136.2 148.65 137.15 150.2 140 150.2 141 150.2 142.65 148.65 144.45 147.1 144.45 146.05 144.45 141.55 140.95 136.8
M 179.85 145.8
Q 180 146.15 180.2 146.75
L 155.4 240.7 150.45 289.05 182.35 289.15 183.1 288.7
Q 194 282.8 198.1 254.5 202.3 225.85 219.7 205.9 237.2 185.75 237.2 146.65 237.2 107.6 209.6 80 182.75 53.15 145.15 52.3
L 144.3 52.3
Q 144.1 52.3 143.95 52.3
L 139.9 52.4
Q 102.3 53.15 75.45 80 47.85 107.6 47.85 146.65 47.85 185.75 65.35 205.9 82.75 225.85 86.95 254.5 91.05 282.8 102 288.85
L 130.4 288.95 126 240.7 100.55 149.05 126 240.7 155.4 240.7 180.2 146.75
Q 180 146.15 179.85 145.8 176 137.85 175.9 137.75 173.5 134.5 168 134.5 162.8 134.5 159.2 136.75 161.25 139.65 161.25 143.6 161.25 146.35 160.5 148.65 159.55 152 157.65 152 155.85 152 154.75 149.35 154.15 147.55 154.15 145.4 154.15 140.6 158.1 137.5 158.6 137.05 159.2 136.75 158.35 135.6 157.3 134.5 153.7 131.15 149.4 131.15 143.7 131.15 139.65 135.2 140.25 135.8 140.95 136.8 144.45 141.55 144.45 146.05 144.45 147.1 142.65 148.65 141 150.2 140 150.2 137.15 150.2 136.2 148.65 135.55 147.55 135.55 144.35 135.55 139.2 139.5 135.25 139.55 135.2 139.65 135.2 136.2 131.6 132.35 131.6 126.45 131.6 119.85 135.7 118.05 136.8 116.75 137.85
L 116.85 137.85
Q 119.75 137.85 121.65 140.85 123 143.25 123 145.65 123 148.2 121.65 149.75 120.1 151.2 117.3 151.2 114.3 151.2 113.4 149.75 112.75 148.55 112.75 144.7 112.75 141.2 116.75 137.85 115.4 137.95 111.95 139.05 109.2 139.9 107 140.85 104.7 141.7 102.8 144.6 100.75 147.95 99.9 149.05 100.75 147.95 102.8 144.6 104.7 141.7 107 140.85 109.2 139.9 111.95 139.05 115.4 137.95 116.75 137.85 118.05 136.8 119.85 135.7 126.45 131.6 132.35 131.6 136.2 131.6 139.65 135.2 143.7 131.15 149.4 131.15 153.7 131.15 157.3 134.5 158.35 135.6 159.2 136.75 162.8 134.5 168 134.5 173.5 134.5 175.9 137.75 176 137.85 179.85 145.8 Z"/>
</g>

<path id="Layer0_0_1_STROKES" stroke="#414141" stroke-width="2" stroke-linejoin="round" stroke-linecap="round" fill="none" d="
M 182.35 289.15
L 150.45 289.05
M 183.1 288.7
Q 194 282.8 198.1 254.5 202.3 225.85 219.7 205.9 237.2 185.75 237.2 146.65 237.2 107.6 209.6 80 182.75 53.15 145.15 52.3
L 144.3 52.3
Q 144.1 52.3 143.95 52.3
M 139.9 52.4
Q 102.3 53.15 75.45 80 47.85 107.6 47.85 146.65 47.85 185.75 65.35 205.9 82.75 225.85 86.95 254.5 91.05 282.8 102 288.85
L 130.4 288.95
M 143.95 52.3
L 142.8 52.3
Q 142.5 52.3 142.2 52.3
L 141.6 52.3
Q 140.75 52.3 139.9 52.4
M 102 288.85
Q 101.35 292.15 101.1 295.4
L 183.35 295.4
Q 183.2 292.4 182.35 289.15
M 150.45 289.05
L 130.4 288.95
M 101.1 295.4
Q 100.65 301.15 102 305.35
L 105.8 306.85 180.8 303 182.35 302.95
Q 183.6 299.35 183.35 295.4
M 105.8 306.85
Q 105.8 310.05 105.9 313.2
M 180.55 308.4
Q 180.6 305.75 180.8 303
M 105.8 335.65
Q 105.7 339.35 105.6 343.05
M 105.9 320.4
Q 105.9 324.35 105.9 328.4
M 106.5 350.15
L 117.7 363.1 166.75 362.35 179.95 347
Q 179.95 346.15 179.95 345.35
M 117.7 363.1
Q 119.4 368.35 126.6 373.55 138.95 377 155.5 373.55
L 166.75 362.35
M 179.85 338.25
Q 179.75 334.45 179.85 330.8
M 179.95 323.5
Q 180 319.45 180.2 315.6"/>

<path id="Layer0_0_2_STROKES" stroke="#333333" stroke-width="2" stroke-linejoin="round" stroke-linecap="round" fill="none" d="
M 180.2 146.75
L 155.4 240.7 150.45 289.05
M 130.4 288.95
L 126 240.7 100.55 149.05
M 155.4 240.7
L 126 240.7"/>

<path id="Layer0_0_3_STROKES" stroke="#414141" stroke-width="1" stroke-linejoin="round" stroke-linecap="round" fill="none" d="
M 105.9 313.2
L 180.55 308.4
M 105.9 320.4
L 102.6 320.6
Q 100.5 318.45 102.6 313.4
L 105.9 313.2
M 106.5 350.15
L 101.95 350.4
Q 99.2 347.85 101.95 343.3
L 105.6 343.05
M 105.8 335.65
L 102.1 335.95
Q 99.3 333.25 102.1 328.65
L 105.9 328.4
M 105.9 320.4
L 180.2 315.6 183.45 315.35
Q 185.85 311.95 183.45 308.25
L 180.55 308.4
M 179.95 345.35
L 106.5 350.15
M 179.85 330.8
L 105.8 335.65
M 179.85 338.25
L 182.95 338
Q 185.35 341.6 182.95 345.1
L 179.95 345.35
M 179.95 323.5
L 183 323.25
Q 185.5 326.95 183 330.55
L 179.85 330.8
M 105.9 328.4
L 179.95 323.5
M 105.6 343.05
L 179.85 338.25"/>

<path id="Layer0_0_4_STROKES" stroke="#000000" stroke-width="1" stroke-linejoin="round" stroke-linecap="round" fill="none" d="
M 99.9 149.05
Q 100.75 147.95 102.8 144.6 104.7 141.7 107 140.85 109.2 139.9 111.95 139.05 115.4 137.95 116.75 137.85 118.05 136.8 119.85 135.7 126.45 131.6 132.35 131.6 136.2 131.6 139.65 135.2 143.7 131.15 149.4 131.15 153.7 131.15 157.3 134.5 158.35 135.6 159.2 136.75 162.8 134.5 168 134.5 173.5 134.5 175.9 137.75 176 137.85 179.85 145.8 180 146.15 180.2 146.75
M 139.65 135.2
Q 139.55 135.2 139.5 135.25 135.55 139.2 135.55 144.35 135.55 147.55 136.2 148.65 137.15 150.2 140 150.2 141 150.2 142.65 148.65 144.45 147.1 144.45 146.05 144.45 141.55 140.95 136.8 140.25 135.8 139.65 135.2 Z
M 116.75 137.85
Q 112.75 141.2 112.75 144.7 112.75 148.55 113.4 149.75 114.3 151.2 117.3 151.2 120.1 151.2 121.65 149.75 123 148.2 123 145.65 123 143.25 121.65 140.85 119.75 137.85 116.85 137.85
L 116.75 137.85 Z
M 159.2 136.75
Q 158.6 137.05 158.1 137.5 154.15 140.6 154.15 145.4 154.15 147.55 154.75 149.35 155.85 152 157.65 152 159.55 152 160.5 148.65 161.25 146.35 161.25 143.6 161.25 139.65 159.2 136.75 Z"/>
</defs>

<g transform="matrix( 1, 0, 0, 1, 0,0) ">
<use xlink:href="#Layer0_0_FILL"/>

<use xlink:href="#Layer0_0_1_STROKES"/>

<use xlink:href="#Layer0_0_2_STROKES"/>

<use xlink:href="#Layer0_0_3_STROKES"/>

<use xlink:href="#Layer0_0_4_STROKES"/>
</g>
</svg>
